X:204
T:Lucky in Love
Z: id:dc-reel-186
M:C
L:1/8
K:G Major
z|gfgd BGGA|BGdG BAA2|gfgd BGGA|BdAc BGG:|!
A|BGdG eGdG|BGdG BAAc|BGdG eGdG|BdAc BGGA|!
BGdG eGdG|BGdG BAAB|GABd eaag|fdef gab|]!